X:1
T:Title
%%score { ( 1 3 ) | ( 2 4 ) }
L:1/8
Q:1/4=100
M:4/4
K:Db
V:1 treble nm="Grand Piano"
V:3 treble 
V:2 bass 
V:4 bass 
V:1
 [DF]3 [EG] [FA]2 [Fd]2 | [_Fc]2 [FB]2 [=FA]4 | D2 D2 G2 F2 | F2 E2 E4 | F3 [EG] [FA]2 [Fd]2 | %5
w: Lillian~Taitt~Sheldon * * *|||||
 [Ed]2 [Ec]2 [DB]4 | z4 z2 A2 | A2 B2 [CA]4 | E3 F G2 B2 | A4 z4 | z4 z2 c2 | c2 B2 [Ge]4 | %12
w: |||||||
 [Ff]3 [Ge] [Ad]2 [Fd]2 | [Ed]3 [Ec] [DB]4 | %14
w: ||
 E2 _F2 =F2 G2[Q:1/4=98][Q:1/4=97][Q:1/4=95][Q:1/4=94][Q:1/4=92][Q:1/4=91][Q:1/4=89][Q:1/4=88][Q:1/4=86][Q:1/4=84][Q:1/4=83][Q:1/4=81][Q:1/4=80][Q:1/4=78][Q:1/4=77] | %15
w: |
 [CE]3 D D4 |] %16
w: |
V:2
 [D,A,]3 [D,A,] [D,A,]2 [D,A,]2 | [D,=G,]2 [D,G,]2 [D,A,]4 | [G,B,]2 [F,A,]2 [E,A,C]2 [D,A,D]2 | %3
 [G,B,D]2 [=G,B,D]2 [A,C]4 | [D,A,D]3 [D,A,] [D,A,]2 [D,A,]2 | [F,=A,]2 [F,A,]2 [B,,B,]4 | %6
 [E,B,D]2 [D,=G,B,]2 [C,A,]2 [A,C]B, | [E,CE]2 [E,=G,D]2 [A,,A,]4 | %8
 [G,A,C]3 [F,A,D] [E,A,C]2 [G,A,C]2 | A,4 z4 | z4 z2 A,2 | [E,A,E]2 [E,=G,D]2 [A,,A,]4 | %12
 [D,A,]3 [E,C] [F,D]2 [D,A,]2 | [F,=A,]3 [F,A,] [B,,B,]4 | [=G,B,D]2 [_G,B,D]2 [F,B,D]2 [E,B,D]2 | %15
 [A,,G,]3 [D,F,] [D,F,]4 |] %16
V:3
 x8 | x8 | x8 | x8 | x8 | x8 | =G2 FE [Ee]2 z D | x8 | x8 | z2 B,G F4 | [FA]2 [EA]2 [Ed]2 EF | x8 | %12
 x8 | x8 | x8 | x8 |] %16
V:4
 x8 | x8 | x8 | x8 | x8 | x8 | z4 z2 F,2 | x8 | x8 | [F,D]2 E,[E,A,C] [D,A,D]4 | %10
 [D,A,]2 [C,A,]2 [B,,=G,]2 C,D, | x8 | x8 | x8 | x8 | x8 |] %16

